X: 12643
T: Farmerlife
R: reel
M: 4/4
K: Amajor
A2 ce fece|A2 ce f2e2|E2GB dBGB|ABcd efec|
A2 ce fece|A2 ce f2e2|E2GB dBGB|1 (3AAA AB AccB:|2 (3AAA AB Aaag||
(3faf da (3faf da|(3efe cf (3efe c2|E2GB dBGB|ABcd eaag|
(3faf da (3faf da|(3efe cf (3efe c2|E2GB dBGB|1 (3AAA AB Aaag:|2 (3AAA AB AccB||

